X:95
T:My Home (Mo dhachaidh)
C:Scottish
M:3/4
K:A
L:1/4
V: 1 name="Vln I" snm="" clef=treble
%%MIDI channel 1
%%MIDI program 51
|: e/d/ | "A" c3/2 B/ A | A c e | "D" a g f | "E" e2 d | "A" c3/2 B/ c | "A" A c e | "D" d3/2 c/ d | "E" B e d |
"A" c3/2 B/ A | A c e | "D" a g f | "E" e2 d | "A" c/ A3/2 c | "G" B3/2 =G/ B | "A" A3 | A2 :|
|: G | "A" A3/2 B/ c | "A/G#" c3/2 B/ c | "A/F#" e2 c | "A/E" c2 e | "D" d3/2 c/ d | "E" B c d | "A" e3/2 c/ A | A c e |
"D" f3/2 d/ f | "Bm/G" a g f | "A" e3/2 d/ c | "D" a2 d | "A" c/ A3/2 c | "G" B3/2 =G/ B | "A" A3 | "A" A2 :|
V: 2 name="Vln II" snm="" clef=treble
L:1/4
%%MIDI channel 2
%%MIDI program 53
|: c/B/ | A3/2 E/ C | E A c | f e d | c2 B | A3/2 E/ C | C E A | F2 A | G c B |
A3/2 E/ C | E A c | f e d | c2 B | A/ E3/2 A | =G D G | A3 | A2 :|
|: E | A3 | G3 | F3 | E3 | D3/2 E/ F | E2 B | A3/2 E/ C | C E A | d3/2 A/ d |
f e d | c3/2 B/ A | f z B | A3/2 E/ A | =G D G | A E C | A, z :|

% X:51
% T:My Home (Mo dhachaidh)
% C:Scottish
% M:3/4
% K:A
% L:1/8
% V: 1 name="Vln I" snm="" clef=treble
% %%MIDI gchordon
% %%MIDI channel 1
% %%MIDI program 40
% |: ed | "A" c3 B A2 | A2 c2 e2 | "D" a2 g2 f2 | "E" e4 d2 | "A" c3 B c2 | "A" A2 c2 e2 | "D" d3 c d2 | "E" B2 e2 d2 |
% "A" c3 B A2 | A2 c2 e2 | "D" a2 g2 f2 | "E" e4 d2 | "A" c A3 c2 | "G" B3 =G B2 | "A" A6 | A4 :|
% |: G2 | "A" A3 B c2 | "A/G#" c3 B c2 | "A/F#" e4 c2 | "A/E" c4 e2 | "D" d3 c d2 | "E" B2 c2 d2 | "A" e3 c A2 | A2 c2 e2 |
% "D" f3 d f2 | "Bm/G" a2 g2 f2 | "A" e3 d c2 | "D" a4 d2 | "A" c A3 c2 | "G" B3 =G B2 | "A" A6 | "A" A4 :|
% V: 2 name="Vln II" snm="" clef=treble
% L:1/8
% %%MIDI channel 2
% %%MIDI program 40
% |: cB | A3 E C2 | E2 A2 c2 | f2 e2 d2 | c4 B2 | A3 E C2 | C2 E2 A2 | F4 A2 | G2 c2 B2 |
% A3 E C2 | E2 A2 c2 | f2 e2 d2 | c4 B2 | A E3 A2 | =G2 D2 G2 | A6 | A4 :|
% |: E2 | A6 | G6 | F6 | E6 | D3 E F2 | E4 B2 | A3 E C2 | C2 E2 A2 | d3 A d2 |
% f2 e2 d2 | c3 B A2 | f2 z2 B2 | A3 E A2 | =G2 D2 G2 | A2 E2 C2 | A,2 z2 :|

